public/assets/images/right.svg

<svg fill="none" height="11" viewBox="0 0 7 11" width="7" xmlns="http://www.w3.org/2000/svg"><path d="m.768979 11c-.211896 0-.393033-.0735-.543412-.2204-.1503779-.147-.225567-.3264-.225567-.5383s.0786068-.39648.23582-.55369l4.14224-4.13198-4.14224-4.13199c-.1572132-.15721-.23582-.34177-.23582-.553663 0-.211897.0751891-.391325.225567-.538285.150379-.146961.331516-.220441.543412-.220441.198226 0 .375941.071771.533161.215314l4.67539 4.654885c.16405.15038.24608.34177.24608.57418 0 .21873-.08203.41012-.24608.57417l-4.67539 4.6549c-.14354.1435-.321264.2153-.533161.2153z" fill="#2997ff"/></svg>

<svg
              width="7"
              height="11"
              viewBox="0 0 7 11"
              fill="none"
              xmlns="http://www.w3.org/2000/svg"
              className="ml-2"
            >
              <path
                d="M0.768979 11C0.557083 11 0.375946 10.9265 0.225567 10.7796C0.0751891 10.6326 0 10.4532 0 10.2413C0 10.0294 0.0786068 9.84482 0.23582 9.68761L4.37806 5.55563L0.23582 1.42364C0.0786068 1.26643 0 1.08187 0 0.869977C0 0.65808 0.0751891 0.478652 0.225567 0.331692C0.375946 0.184731 0.557083 0.111251 0.768979 0.111251C0.967205 0.111251 1.14492 0.183022 1.30214 0.326565L5.97753 4.98145C6.14158 5.13183 6.22361 5.32322 6.22361 5.55563C6.22361 5.77436 6.14158 5.96575 5.97753 6.1298L1.30214 10.7847C1.1586 10.9282 0.980876 11 0.768979 11Z"
                fill="#2997FF"
              />
            </svg>
